X: 6654
T: Cédulie
R: reel
M: 4/4
K: Gmajor
BG G2 BGBG|DGBG ABcd|e2 ce dAGd|cBAc BGdA|
BG G2 DGBG|ABcd e2 ce|dcBd cBag|1 fdef g2 dA:|2 [M:2/4] fdef||
|:[M:4/4] g2 dg Bgdg|g2 bg agfg|ea a2 eaca|
[M:4/4] gd d2 Bdba|gfed cBAB|1 [M:3/4] cd eg fa:|2 [M:3/4] cd eg fa|[M:2/4] g2 dA||

